X: 47
T: WELL MAY THE KEEL ROW
B: "Old English Country Dances", Frank Kidson ed., William Reeves pub., London 1890
Z: 2010-9-26 John Chambers <jc:trillian.mit.edu>
M: C
L: 1/8
K: G
   d | B2 GB c2 Ac | B2 AG F/G/A Dc | B2 GB c2 Ac | BG    AG/F/ G2 G,:|
|: c | Bd dg e2 dc | B2 AG F/G/A D2 | Bd dg e2 dc | BA/G/ AG/F/ G2 G :|


%%sep 1 1 500

%%sep 1 1 500

